Newaita-dark/apps/48/accerciser.svg

<svg height="48pt" viewBox="0 0 48 48" width="48pt" xmlns="http://www.w3.org/2000/svg" xmlns:xlink="http://www.w3.org/1999/xlink"><linearGradient id="a"><stop offset="0" stop-opacity=".313725"/><stop offset=".222222" stop-opacity=".27451"/><stop offset="1" stop-opacity="0"/></linearGradient><radialGradient id="b" cx="450.908936" cy="189.579361" gradientTransform="matrix(.00000026 -.117199 -.210958 -.00000015 76.707556 95.392996)" gradientUnits="userSpaceOnUse" r="21.166656" xlink:href="#a"/><radialGradient id="c" cx="450.908936" cy="189.579361" gradientTransform="matrix(-.00000026 .117199 .210958 .00000015 -3.278651 -11.291221)" gradientUnits="userSpaceOnUse" r="21.166656" xlink:href="#a"/><radialGradient id="d" cx="450.908936" cy="189.579361" gradientTransform="matrix(-.00000026 -.117199 .210958 -.00000015 -3.278651 95.392996)" gradientUnits="userSpaceOnUse" r="21.166656" xlink:href="#a"/><radialGradient id="e" cx="450.908936" cy="189.579361" gradientTransform="matrix(.00000026 .117199 -.210958 .00000015 76.707553 -11.291222)" gradientUnits="userSpaceOnUse" r="21.166656" xlink:href="#a"/><linearGradient id="f"><stop offset="0" stop-opacity=".27451"/><stop offset="1" stop-opacity="0"/></linearGradient><linearGradient id="g" gradientTransform="matrix(.0200401 0 0 .093759 31.597748 20.158177)" gradientUnits="userSpaceOnUse" x1="255.323059" x2="255.323044" xlink:href="#f" y1="233.5" y2="254.666656"/><linearGradient id="h"><stop offset="0" stop-color="#d32f2f"/><stop offset="1" stop-color="#e53935"/></linearGradient><linearGradient id="i" gradientUnits="userSpaceOnUse" x1="63.5" x2="42.333332" xlink:href="#h" y1="191.166672" y2="-105.166656"/><linearGradient id="j" gradientUnits="userSpaceOnUse" x1="23.814786" x2="23.814786" y1="28.15894325002" y2="21.21296375"><stop offset="0" stop-color="#5c6bc0"/><stop offset="1" stop-color="#7986cb"/></linearGradient><radialGradient id="k" cx="450.908936" cy="189.579361" gradientTransform="matrix(.00000026 -.117199 -.210958 -.00000015 51.900495 95.392996)" gradientUnits="userSpaceOnUse" r="21.166656" xlink:href="#a"/><radialGradient id="l" cx="450.908936" cy="189.579361" gradientTransform="matrix(-.00000026 .117199 .210958 .00000015 -28.085712 -11.291221)" gradientUnits="userSpaceOnUse" r="21.166656" xlink:href="#a"/><radialGradient id="m" cx="450.908936" cy="189.579361" gradientTransform="matrix(-.00000026 -.117199 .210958 -.00000015 -28.085712 95.392996)" gradientUnits="userSpaceOnUse" r="21.166656" xlink:href="#a"/><radialGradient id="n" cx="450.908936" cy="189.579361" gradientTransform="matrix(.00000026 .117199 -.210958 .00000015 51.900492 -11.291222)" gradientUnits="userSpaceOnUse" r="21.166656" xlink:href="#a"/><linearGradient id="o" gradientTransform="matrix(.0200401 0 0 .093759 6.790687 20.158177)" gradientUnits="userSpaceOnUse" x1="255.323059" x2="255.323044" xlink:href="#f" y1="233.5" y2="254.666656"/><linearGradient id="p"><stop offset="0" stop-color="#f44336"/><stop offset="1" stop-color="#ef5350"/></linearGradient><linearGradient id="q" gradientUnits="userSpaceOnUse" x1="11.907393" x2="11.907393" xlink:href="#p" y1="42.0509015" y2="6.5767941876"/><linearGradient id="r" gradientUnits="userSpaceOnUse" x1="-444.5" x2="-444.5" xlink:href="#h" y1="191.166672" y2="-84"/><linearGradient id="s" gradientTransform="matrix(-.093759 0 0 .093759 0 20.158175)" gradientUnits="userSpaceOnUse" x1="-402.166656" x2="-402.166656" xlink:href="#p" y1="233.5" y2="-144.854156"/><path d="m37.210938 42.050781h3.96875v-1.984375h-3.96875zm0 0" fill="url(#b)"/><path d="m36.21875 42.050781h-3.96875v1.984375h3.96875zm0 0" fill="url(#c)"/><path d="m36.21875 42.050781h-3.96875v-1.984375h3.96875zm0 0" fill="url(#d)"/><path d="m37.210938 42.050781h3.96875v1.984375h-3.96875zm0 0" fill="url(#e)"/><path d="m36.21875 41.554688h.992188v2.480468h-.992188zm0 0" fill="url(#g)"/><path d="m84.658582-94.594831c17.539992 0 31.746968 17.789967 31.746968 39.704541v206.355294c0 21.914574-14.206976 39.704542-31.746968 39.704542s-31.746968-17.789968-31.746968-39.704542v-206.355294c0-21.914574 14.206976-39.704541 31.746968-39.704541zm0 0" fill="url(#i)" stroke="#212121" stroke-linecap="square" stroke-linejoin="bevel" stroke-width="3" transform="matrix(.093759 0 0 .093759 0 20.158175)"/><path d="m11.90625 21.214844h24.808594v6.945312h-24.808594zm0 0" fill="url(#j)"/><path d="m12.402344 42.050781h3.96875v-1.984375h-3.96875zm0 0" fill="url(#k)"/><path d="m11.410156 42.050781h-3.96875v1.984375h3.96875zm0 0" fill="url(#l)"/><path d="m11.410156 42.050781h-3.96875v-1.984375h3.96875zm0 0" fill="url(#m)"/><path d="m12.402344 42.050781h3.96875v1.984375h-3.96875zm0 0" fill="url(#n)"/><path d="m11.410156 41.554688h.992188v2.480468h-.992188zm0 0" fill="url(#o)"/><path d="m11.90625 21.214844v.496094h24.808594v-.496094zm0 0" fill="#fff" fill-opacity=".392157"/><path d="m11.90625 27.664062v.496094h24.808594v-.496094zm0 0" fill-opacity=".235294"/><path d="m126.987873 11.270059h264.599732v74.076259h-264.599732zm0 0" fill="none" stroke="#212121" stroke-linecap="square" stroke-linejoin="bevel" stroke-width="3" transform="matrix(.093759 0 0 .093759 0 20.158175)"/><path d="m11.90625 6.578125c2.191406 0 3.96875 1.664063 3.96875 3.71875v28.03125c0 2.058594-1.777344 3.722656-3.96875 3.722656s-3.96875-1.664062-3.96875-3.722656v-28.03125c0-2.054687 1.777344-3.71875 3.96875-3.71875zm0 0" fill="url(#q)"/><path d="m-433.916896-94.594831c17.539991 0 31.746968 17.789967 31.746968 39.704541v206.355294c0 21.914574-14.206977 39.704542-31.746968 39.704542-17.539992 0-31.746969-17.789968-31.746969-39.704542v-206.355294c0-21.914574 14.206977-39.704541 31.746969-39.704541zm0 0" fill="url(#r)" stroke="#212121" stroke-linecap="square" stroke-linejoin="bevel" stroke-width="3" transform="matrix(-.093759 0 0 .093759 0 20.158175)"/><path d="m36.714844 6.578125c-2.191406 0-3.96875 1.664063-3.96875 3.71875v28.03125c0 2.058594 1.777344 3.722656 3.96875 3.722656s3.96875-1.664062 3.96875-3.722656v-28.03125c0-2.054687-1.777344-3.71875-3.96875-3.71875zm0 0" fill="url(#s)"/><path d="m11.90625 6.578125c-2.199219 0-3.96875 1.660156-3.96875 3.71875v.496094c0-2.058594 1.769531-3.71875 3.96875-3.71875s3.96875 1.660156 3.96875 3.71875v-.496094c0-2.058594-1.769531-3.71875-3.96875-3.71875zm0 0" fill="#fbbdb8" fill-opacity=".392157"/><path d="m11.90625 42.050781c-2.199219 0-3.96875-1.660156-3.96875-3.722656v-.496094c0 2.0625 1.769531 3.722657 3.96875 3.722657s3.96875-1.660157 3.96875-3.722657v.496094c0 2.0625-1.769531 3.722656-3.96875 3.722656zm0 0" fill-opacity=".235294"/><path d="m11.90625 6.4375c-2.269531 0-4.109375 1.71875-4.109375 3.859375v28.03125c0 2.144531 1.839844 3.863281 4.109375 3.863281s4.109375-1.71875 4.109375-3.863281v-28.03125c0-2.140625-1.839844-3.859375-4.109375-3.859375zm0 .28125c2.128906 0 3.828125 1.597656 3.828125 3.578125v28.03125c0 1.984375-1.699219 3.582031-3.828125 3.582031s-3.828125-1.597656-3.828125-3.582031v-28.03125c0-1.980469 1.699219-3.578125 3.828125-3.578125zm0 0" fill="#212121"/><path d="m36.714844 6.578125c-2.199219 0-3.96875 1.660156-3.96875 3.71875v.496094c0-2.058594 1.769531-3.71875 3.96875-3.71875 2.199218 0 3.96875 1.660156 3.96875 3.71875v-.496094c0-2.058594-1.769532-3.71875-3.96875-3.71875zm0 0" fill="#fbbdb8" fill-opacity=".392157"/><path d="m36.714844 42.050781c-2.199219 0-3.96875-1.660156-3.96875-3.722656v-.496094c0 2.0625 1.769531 3.722657 3.96875 3.722657 2.199218 0 3.96875-1.660157 3.96875-3.722657v.496094c0 2.0625-1.769532 3.722656-3.96875 3.722656zm0 0" fill-opacity=".235294"/><path d="m36.714844 6.4375c-2.269532 0-4.109375 1.71875-4.109375 3.859375v28.03125c0 2.144531 1.839843 3.863281 4.109375 3.863281 2.269531 0 4.109375-1.71875 4.109375-3.863281v-28.03125c0-2.140625-1.839844-3.859375-4.109375-3.859375zm0 .28125c2.128906 0 3.828125 1.597656 3.828125 3.578125v28.03125c0 1.984375-1.699219 3.582031-3.828125 3.582031s-3.828125-1.597656-3.828125-3.582031v-28.03125c0-1.980469 1.699219-3.578125 3.828125-3.578125zm0 0" fill="#212121"/></svg>

<?xml version="1.0" encoding="UTF-8"?>
<svg xmlns="http://www.w3.org/2000/svg" xmlns:xlink="http://www.w3.org/1999/xlink" width="48pt" height="48pt" viewBox="0 0 48 48" version="1.1">
<defs>
<radialGradient id="radial0" gradientUnits="userSpaceOnUse" cx="450.908936" cy="189.579361" fx="450.908936" fy="189.579361" r="21.166656" gradientTransform="matrix(0.000000261256,-0.117199,-0.210958,-0.000000152308,76.707556,95.392996)">
<stop offset="0" style="stop-color:rgb(0%,0%,0%);stop-opacity:0.313725;"/>
<stop offset="0.222222" style="stop-color:rgb(0%,0%,0%);stop-opacity:0.27451;"/>
<stop offset="1" style="stop-color:rgb(0%,0%,0%);stop-opacity:0;"/>
</radialGradient>
<radialGradient id="radial1" gradientUnits="userSpaceOnUse" cx="450.908936" cy="189.579361" fx="450.908936" fy="189.579361" r="21.166656" gradientTransform="matrix(-0.000000261256,0.117199,0.210958,0.000000152308,-3.278651,-11.291221)">
<stop offset="0" style="stop-color:rgb(0%,0%,0%);stop-opacity:0.313725;"/>
<stop offset="0.222222" style="stop-color:rgb(0%,0%,0%);stop-opacity:0.27451;"/>
<stop offset="1" style="stop-color:rgb(0%,0%,0%);stop-opacity:0;"/>
</radialGradient>
<radialGradient id="radial2" gradientUnits="userSpaceOnUse" cx="450.908936" cy="189.579361" fx="450.908936" fy="189.579361" r="21.166656" gradientTransform="matrix(-0.000000261256,-0.117199,0.210958,-0.000000152308,-3.278651,95.392996)">
<stop offset="0" style="stop-color:rgb(0%,0%,0%);stop-opacity:0.313725;"/>
<stop offset="0.222222" style="stop-color:rgb(0%,0%,0%);stop-opacity:0.27451;"/>
<stop offset="1" style="stop-color:rgb(0%,0%,0%);stop-opacity:0;"/>
</radialGradient>
<radialGradient id="radial3" gradientUnits="userSpaceOnUse" cx="450.908936" cy="189.579361" fx="450.908936" fy="189.579361" r="21.166656" gradientTransform="matrix(0.000000261256,0.117199,-0.210958,0.000000152308,76.707553,-11.291222)">
<stop offset="0" style="stop-color:rgb(0%,0%,0%);stop-opacity:0.313725;"/>
<stop offset="0.222222" style="stop-color:rgb(0%,0%,0%);stop-opacity:0.27451;"/>
<stop offset="1" style="stop-color:rgb(0%,0%,0%);stop-opacity:0;"/>
</radialGradient>
<linearGradient id="linear0" gradientUnits="userSpaceOnUse" x1="255.323059" y1="233.5" x2="255.323044" y2="254.666656" gradientTransform="matrix(0.0200401,0,0,0.093759,31.597748,20.158177)">
<stop offset="0" style="stop-color:rgb(0%,0%,0%);stop-opacity:0.27451;"/>
<stop offset="1" style="stop-color:rgb(0%,0%,0%);stop-opacity:0;"/>
</linearGradient>
<linearGradient id="linear1" gradientUnits="userSpaceOnUse" x1="63.5" y1="191.166672" x2="42.333332" y2="-105.166656" gradientTransform="matrix(1,0,0,1,0,0)">
<stop offset="0" style="stop-color:rgb(82.745098%,18.431373%,18.431373%);stop-opacity:1;"/>
<stop offset="1" style="stop-color:rgb(89.803922%,22.352941%,20.784314%);stop-opacity:1;"/>
</linearGradient>
<linearGradient id="linear2" gradientUnits="userSpaceOnUse" x1="254" y1="85.333336" x2="254" y2="11.25" gradientTransform="matrix(0.093759,0,0,0.093759,0,20.158175)">
<stop offset="0" style="stop-color:rgb(36.078431%,41.960784%,75.294118%);stop-opacity:1;"/>
<stop offset="1" style="stop-color:rgb(47.45098%,52.54902%,79.607843%);stop-opacity:1;"/>
</linearGradient>
<radialGradient id="radial4" gradientUnits="userSpaceOnUse" cx="450.908936" cy="189.579361" fx="450.908936" fy="189.579361" r="21.166656" gradientTransform="matrix(0.000000261256,-0.117199,-0.210958,-0.000000152308,51.900495,95.392996)">
<stop offset="0" style="stop-color:rgb(0%,0%,0%);stop-opacity:0.313725;"/>
<stop offset="0.222222" style="stop-color:rgb(0%,0%,0%);stop-opacity:0.27451;"/>
<stop offset="1" style="stop-color:rgb(0%,0%,0%);stop-opacity:0;"/>
</radialGradient>
<radialGradient id="radial5" gradientUnits="userSpaceOnUse" cx="450.908936" cy="189.579361" fx="450.908936" fy="189.579361" r="21.166656" gradientTransform="matrix(-0.000000261256,0.117199,0.210958,0.000000152308,-28.085712,-11.291221)">
<stop offset="0" style="stop-color:rgb(0%,0%,0%);stop-opacity:0.313725;"/>
<stop offset="0.222222" style="stop-color:rgb(0%,0%,0%);stop-opacity:0.27451;"/>
<stop offset="1" style="stop-color:rgb(0%,0%,0%);stop-opacity:0;"/>
</radialGradient>
<radialGradient id="radial6" gradientUnits="userSpaceOnUse" cx="450.908936" cy="189.579361" fx="450.908936" fy="189.579361" r="21.166656" gradientTransform="matrix(-0.000000261256,-0.117199,0.210958,-0.000000152308,-28.085712,95.392996)">
<stop offset="0" style="stop-color:rgb(0%,0%,0%);stop-opacity:0.313725;"/>
<stop offset="0.222222" style="stop-color:rgb(0%,0%,0%);stop-opacity:0.27451;"/>
<stop offset="1" style="stop-color:rgb(0%,0%,0%);stop-opacity:0;"/>
</radialGradient>
<radialGradient id="radial7" gradientUnits="userSpaceOnUse" cx="450.908936" cy="189.579361" fx="450.908936" fy="189.579361" r="21.166656" gradientTransform="matrix(0.000000261256,0.117199,-0.210958,0.000000152308,51.900492,-11.291222)">
<stop offset="0" style="stop-color:rgb(0%,0%,0%);stop-opacity:0.313725;"/>
<stop offset="0.222222" style="stop-color:rgb(0%,0%,0%);stop-opacity:0.27451;"/>
<stop offset="1" style="stop-color:rgb(0%,0%,0%);stop-opacity:0;"/>
</radialGradient>
<linearGradient id="linear3" gradientUnits="userSpaceOnUse" x1="255.323059" y1="233.5" x2="255.323044" y2="254.666656" gradientTransform="matrix(0.0200401,0,0,0.093759,6.790687,20.158177)">
<stop offset="0" style="stop-color:rgb(0%,0%,0%);stop-opacity:0.27451;"/>
<stop offset="1" style="stop-color:rgb(0%,0%,0%);stop-opacity:0;"/>
</linearGradient>
<linearGradient id="linear4" gradientUnits="userSpaceOnUse" x1="127" y1="233.5" x2="127" y2="-144.854156" gradientTransform="matrix(0.093759,0,0,0.093759,0,20.158175)">
<stop offset="0" style="stop-color:rgb(95.686275%,26.27451%,21.176471%);stop-opacity:1;"/>
<stop offset="1" style="stop-color:rgb(93.72549%,32.54902%,31.372549%);stop-opacity:1;"/>
</linearGradient>
<linearGradient id="linear5" gradientUnits="userSpaceOnUse" x1="-444.5" y1="191.166672" x2="-444.5" y2="-84" gradientTransform="matrix(1,0,0,1,0,0)">
<stop offset="0" style="stop-color:rgb(82.745098%,18.431373%,18.431373%);stop-opacity:1;"/>
<stop offset="1" style="stop-color:rgb(89.803922%,22.352941%,20.784314%);stop-opacity:1;"/>
</linearGradient>
<linearGradient id="linear6" gradientUnits="userSpaceOnUse" x1="-402.166656" y1="233.5" x2="-402.166656" y2="-144.854156" gradientTransform="matrix(-0.093759,0,0,0.093759,0,20.158175)">
<stop offset="0" style="stop-color:rgb(95.686275%,26.27451%,21.176471%);stop-opacity:1;"/>
<stop offset="1" style="stop-color:rgb(93.72549%,32.54902%,31.372549%);stop-opacity:1;"/>
</linearGradient>
</defs>
<g id="surface1">
<path style=" stroke:none;fill-rule:nonzero;fill:url(#radial0);" d="M 37.210938 42.050781 L 41.179688 42.050781 L 41.179688 40.066406 L 37.210938 40.066406 Z M 37.210938 42.050781 "/>
<path style=" stroke:none;fill-rule:nonzero;fill:url(#radial1);" d="M 36.21875 42.050781 L 32.25 42.050781 L 32.25 44.035156 L 36.21875 44.035156 Z M 36.21875 42.050781 "/>
<path style=" stroke:none;fill-rule:nonzero;fill:url(#radial2);" d="M 36.21875 42.050781 L 32.25 42.050781 L 32.25 40.066406 L 36.21875 40.066406 Z M 36.21875 42.050781 "/>
<path style=" stroke:none;fill-rule:nonzero;fill:url(#radial3);" d="M 37.210938 42.050781 L 41.179688 42.050781 L 41.179688 44.035156 L 37.210938 44.035156 Z M 37.210938 42.050781 "/>
<path style=" stroke:none;fill-rule:nonzero;fill:url(#linear0);" d="M 36.21875 41.554688 L 37.210938 41.554688 L 37.210938 44.035156 L 36.21875 44.035156 Z M 36.21875 41.554688 "/>
<path style="fill-rule:nonzero;fill:url(#linear1);stroke-width:3;stroke-linecap:square;stroke-linejoin:bevel;stroke:rgb(12.941177%,12.941177%,12.941177%);stroke-opacity:1;stroke-miterlimit:4;" d="M 84.658582 -94.594831 C 102.198574 -94.594831 116.40555 -76.804864 116.40555 -54.89029 L 116.40555 151.465004 C 116.40555 173.379578 102.198574 191.169546 84.658582 191.169546 C 67.11859 191.169546 52.911614 173.379578 52.911614 151.465004 L 52.911614 -54.89029 C 52.911614 -76.804864 67.11859 -94.594831 84.658582 -94.594831 Z M 84.658582 -94.594831 " transform="matrix(0.093759,0,0,0.093759,0,20.158175)"/>
<path style=" stroke:none;fill-rule:nonzero;fill:url(#linear2);" d="M 11.90625 21.214844 L 36.714844 21.214844 L 36.714844 28.160156 L 11.90625 28.160156 Z M 11.90625 21.214844 "/>
<path style=" stroke:none;fill-rule:nonzero;fill:url(#radial4);" d="M 12.402344 42.050781 L 16.371094 42.050781 L 16.371094 40.066406 L 12.402344 40.066406 Z M 12.402344 42.050781 "/>
<path style=" stroke:none;fill-rule:nonzero;fill:url(#radial5);" d="M 11.410156 42.050781 L 7.441406 42.050781 L 7.441406 44.035156 L 11.410156 44.035156 Z M 11.410156 42.050781 "/>
<path style=" stroke:none;fill-rule:nonzero;fill:url(#radial6);" d="M 11.410156 42.050781 L 7.441406 42.050781 L 7.441406 40.066406 L 11.410156 40.066406 Z M 11.410156 42.050781 "/>
<path style=" stroke:none;fill-rule:nonzero;fill:url(#radial7);" d="M 12.402344 42.050781 L 16.371094 42.050781 L 16.371094 44.035156 L 12.402344 44.035156 Z M 12.402344 42.050781 "/>
<path style=" stroke:none;fill-rule:nonzero;fill:url(#linear3);" d="M 11.410156 41.554688 L 12.402344 41.554688 L 12.402344 44.035156 L 11.410156 44.035156 Z M 11.410156 41.554688 "/>
<path style=" stroke:none;fill-rule:nonzero;fill:rgb(100%,100%,100%);fill-opacity:0.392157;" d="M 11.90625 21.214844 L 11.90625 21.710938 L 36.714844 21.710938 L 36.714844 21.214844 Z M 11.90625 21.214844 "/>
<path style=" stroke:none;fill-rule:nonzero;fill:rgb(0%,0%,0%);fill-opacity:0.235294;" d="M 11.90625 27.664062 L 11.90625 28.160156 L 36.714844 28.160156 L 36.714844 27.664062 Z M 11.90625 27.664062 "/>
<path style="fill:none;stroke-width:3;stroke-linecap:square;stroke-linejoin:bevel;stroke:rgb(12.941177%,12.941177%,12.941177%);stroke-opacity:1;stroke-miterlimit:4;" d="M 126.987873 11.270059 L 391.587605 11.270059 L 391.587605 85.346318 L 126.987873 85.346318 Z M 126.987873 11.270059 " transform="matrix(0.093759,0,0,0.093759,0,20.158175)"/>
<path style=" stroke:none;fill-rule:nonzero;fill:url(#linear4);" d="M 11.90625 6.578125 C 14.097656 6.578125 15.875 8.242188 15.875 10.296875 L 15.875 38.328125 C 15.875 40.386719 14.097656 42.050781 11.90625 42.050781 C 9.714844 42.050781 7.9375 40.386719 7.9375 38.328125 L 7.9375 10.296875 C 7.9375 8.242188 9.714844 6.578125 11.90625 6.578125 Z M 11.90625 6.578125 "/>
<path style="fill-rule:nonzero;fill:url(#linear5);stroke-width:3;stroke-linecap:square;stroke-linejoin:bevel;stroke:rgb(12.941177%,12.941177%,12.941177%);stroke-opacity:1;stroke-miterlimit:4;" d="M -433.916896 -94.594831 C -416.376905 -94.594831 -402.169928 -76.804864 -402.169928 -54.89029 L -402.169928 151.465004 C -402.169928 173.379578 -416.376905 191.169546 -433.916896 191.169546 C -451.456888 191.169546 -465.663865 173.379578 -465.663865 151.465004 L -465.663865 -54.89029 C -465.663865 -76.804864 -451.456888 -94.594831 -433.916896 -94.594831 Z M -433.916896 -94.594831 " transform="matrix(-0.093759,0,0,0.093759,0,20.158175)"/>
<path style=" stroke:none;fill-rule:nonzero;fill:url(#linear6);" d="M 36.714844 6.578125 C 34.523438 6.578125 32.746094 8.242188 32.746094 10.296875 L 32.746094 38.328125 C 32.746094 40.386719 34.523438 42.050781 36.714844 42.050781 C 38.90625 42.050781 40.683594 40.386719 40.683594 38.328125 L 40.683594 10.296875 C 40.683594 8.242188 38.90625 6.578125 36.714844 6.578125 Z M 36.714844 6.578125 "/>
<path style=" stroke:none;fill-rule:nonzero;fill:rgb(98.431373%,74.117649%,72.156864%);fill-opacity:0.392157;" d="M 11.90625 6.578125 C 9.707031 6.578125 7.9375 8.238281 7.9375 10.296875 L 7.9375 10.792969 C 7.9375 8.734375 9.707031 7.074219 11.90625 7.074219 C 14.105469 7.074219 15.875 8.734375 15.875 10.792969 L 15.875 10.296875 C 15.875 8.238281 14.105469 6.578125 11.90625 6.578125 Z M 11.90625 6.578125 "/>
<path style=" stroke:none;fill-rule:nonzero;fill:rgb(0%,0%,0%);fill-opacity:0.235294;" d="M 11.90625 42.050781 C 9.707031 42.050781 7.9375 40.390625 7.9375 38.328125 L 7.9375 37.832031 C 7.9375 39.894531 9.707031 41.554688 11.90625 41.554688 C 14.105469 41.554688 15.875 39.894531 15.875 37.832031 L 15.875 38.328125 C 15.875 40.390625 14.105469 42.050781 11.90625 42.050781 Z M 11.90625 42.050781 "/>
<path style=" stroke:none;fill-rule:nonzero;fill:rgb(12.941177%,12.941177%,12.941177%);fill-opacity:1;" d="M 11.90625 6.4375 C 9.636719 6.4375 7.796875 8.15625 7.796875 10.296875 L 7.796875 38.328125 C 7.796875 40.472656 9.636719 42.191406 11.90625 42.191406 C 14.175781 42.191406 16.015625 40.472656 16.015625 38.328125 L 16.015625 10.296875 C 16.015625 8.15625 14.175781 6.4375 11.90625 6.4375 Z M 11.90625 6.71875 C 14.035156 6.71875 15.734375 8.316406 15.734375 10.296875 L 15.734375 38.328125 C 15.734375 40.3125 14.035156 41.910156 11.90625 41.910156 C 9.777344 41.910156 8.078125 40.3125 8.078125 38.328125 L 8.078125 10.296875 C 8.078125 8.316406 9.777344 6.71875 11.90625 6.71875 Z M 11.90625 6.71875 "/>
<path style=" stroke:none;fill-rule:nonzero;fill:rgb(98.431373%,74.117649%,72.156864%);fill-opacity:0.392157;" d="M 36.714844 6.578125 C 34.515625 6.578125 32.746094 8.238281 32.746094 10.296875 L 32.746094 10.792969 C 32.746094 8.734375 34.515625 7.074219 36.714844 7.074219 C 38.914062 7.074219 40.683594 8.734375 40.683594 10.792969 L 40.683594 10.296875 C 40.683594 8.238281 38.914062 6.578125 36.714844 6.578125 Z M 36.714844 6.578125 "/>
<path style=" stroke:none;fill-rule:nonzero;fill:rgb(0%,0%,0%);fill-opacity:0.235294;" d="M 36.714844 42.050781 C 34.515625 42.050781 32.746094 40.390625 32.746094 38.328125 L 32.746094 37.832031 C 32.746094 39.894531 34.515625 41.554688 36.714844 41.554688 C 38.914062 41.554688 40.683594 39.894531 40.683594 37.832031 L 40.683594 38.328125 C 40.683594 40.390625 38.914062 42.050781 36.714844 42.050781 Z M 36.714844 42.050781 "/>
<path style=" stroke:none;fill-rule:nonzero;fill:rgb(12.941177%,12.941177%,12.941177%);fill-opacity:1;" d="M 36.714844 6.4375 C 34.445312 6.4375 32.605469 8.15625 32.605469 10.296875 L 32.605469 38.328125 C 32.605469 40.472656 34.445312 42.191406 36.714844 42.191406 C 38.984375 42.191406 40.824219 40.472656 40.824219 38.328125 L 40.824219 10.296875 C 40.824219 8.15625 38.984375 6.4375 36.714844 6.4375 Z M 36.714844 6.71875 C 38.84375 6.71875 40.542969 8.316406 40.542969 10.296875 L 40.542969 38.328125 C 40.542969 40.3125 38.84375 41.910156 36.714844 41.910156 C 34.585938 41.910156 32.886719 40.3125 32.886719 38.328125 L 32.886719 10.296875 C 32.886719 8.316406 34.585938 6.71875 36.714844 6.71875 Z M 36.714844 6.71875 "/>
</g>
</svg>
